Assets/Svg/logoBranca.svg

<svg width="32" height="30" viewBox="0 0 32 30" fill="none" xmlns="http://www.w3.org/2000/svg">
<path d="M15.6742 0C15.7261 0.035176 15.819 0.221627 15.8541 0.285293L25.116 17.3167L29.6021 25.566C30.3969 27.0277 31.2264 28.5142 32 29.9851C31.4245 29.9562 30.7124 29.9833 30.1248 29.9837L26.6161 29.9875L19.046 29.9961C19.0411 29.5248 18.9704 28.9155 18.9042 28.4477C18.5708 26.0902 17.6751 23.7818 16.1525 21.9461C15.0893 20.6644 13.6267 19.5171 11.9974 19.0989C11.6269 19.0038 11.3164 18.9836 10.9406 18.9499C11.1182 18.8836 11.291 18.815 11.4742 18.7667C11.7699 18.6807 12.1499 18.6287 12.417 18.5376C12.1201 18.5213 11.6654 18.5514 11.3768 18.6087C10.7621 18.7308 10.3682 18.8795 10.0082 19.3995C11.0701 19.1362 11.9704 20.3075 12.4768 21.1059C13.9127 23.3699 14.5922 27.4014 14.0929 29.9953C13.6401 30.0067 13.1187 29.9938 12.6616 29.9938L9.79582 29.9899L3.84705 29.9843L1.43579 29.9811C1.06399 29.9788 0.349283 29.9564 0 29.9893C0.21139 29.5279 0.511996 28.9864 0.751227 28.5289L2.01937 26.1001L5.83124 18.8143L15.6742 0ZM9.08535 16.7941C9.36696 16.204 9.9459 14.5348 10.8056 15.0389C11.7792 15.6099 12.3615 17.4107 12.4753 18.4824C12.8303 18.4789 13.5851 18.5109 13.9205 18.5777C14.8304 18.6942 15.6923 18.9321 16.486 19.4044C15.7152 17.5235 15.0728 15.5337 13.0382 14.7064C12.2691 14.3936 11.6222 14.277 10.8035 14.1591C10.8349 13.5827 11.0406 12.8733 11.4716 12.4632C11.5068 12.4297 11.6273 12.3507 11.6312 12.3293C11.5904 12.3276 11.5975 12.3242 11.5596 12.3339C9.88568 12.6253 9.31155 14.3111 9.14798 15.8255C9.11302 16.1497 9.10346 16.4691 9.08535 16.7941ZM13.3371 13.9711C13.548 13.4315 14.0651 13.354 14.5674 13.2169C15.7817 12.8853 17.0764 13.0699 18.2289 13.5419C22.5131 15.349 25.7739 20.3933 27.5238 24.5348C27.8566 25.3207 28.1546 26.1212 28.4171 26.9339C28.5492 27.3493 28.7619 27.9966 28.8578 28.4148C28.8738 28.5169 28.9081 28.6029 28.9251 28.7003C28.9466 28.7834 29.0307 29.0884 29.0358 29.1563C29.0489 29.2346 29.0486 29.2547 29.083 29.3238L29.0987 29.3274C29.1049 29.2661 29.0816 29.2156 29.0619 29.1569C29.0408 28.9985 28.994 28.8237 28.9564 28.6668C28.9292 28.5753 28.9232 28.5136 28.8885 28.4128C28.7765 27.9004 28.6174 27.3249 28.4669 26.827C28.4522 26.7329 28.3437 26.4126 28.3092 26.3036C28.1617 25.8249 28.0003 25.3508 27.8254 24.8816C25.2465 17.9309 20.0013 11.6712 12.0083 12.2991L11.7987 12.3312C11.8695 12.3401 11.9265 12.3523 11.9969 12.3414C12.7913 12.4163 13.2727 13.2281 13.3371 13.9711ZM14.6231 13.4741C15.5242 13.7396 16.5756 14.1877 16.8289 15.2078C17.1068 14.9821 17.3797 14.774 17.6575 14.5529C17.8582 14.4035 18.2565 14.0907 18.4584 13.9741C17.7545 13.6716 17.0026 13.4998 16.2386 13.4669C15.7749 13.4493 15.324 13.4704 14.8714 13.4579C14.7894 13.4629 14.7047 13.467 14.6231 13.4741Z" fill="hsla(0, 0%, 100%, 0.75)"/>
</svg>

<svg xmlns="http://www.w3.org/2000/svg" width="32" height="30" fill="none" viewBox="0 0 32 30"><path fill="hsla(0, 0%, 100%, 0.75)" d="M15.674 0c.052.035.145.222.18.285l9.262 17.032 4.486 8.249c.795 1.462 1.624 2.948 2.398 4.42-.576-.03-1.288-.003-1.875-.002l-3.509.003-7.57.01c-.005-.472-.076-1.081-.142-1.55-.333-2.357-1.229-4.665-2.751-6.5-1.064-1.283-2.526-2.43-4.156-2.848-.37-.095-.68-.115-1.056-.15.177-.065.35-.134.533-.182.296-.086.676-.138.943-.23a5 5 0 0 0-1.04.072c-.615.122-1.009.27-1.369.79 1.062-.263 1.962.909 2.469 1.707 1.436 2.264 2.115 6.295 1.616 8.89-.453.01-.974-.002-1.431-.002l-2.866-.004-5.949-.006-2.411-.003C1.064 29.98.349 29.956 0 29.99c.211-.461.512-1.003.751-1.46L2.02 26.1l3.812-7.286zM9.085 16.794c.282-.59.86-2.26 1.72-1.755.974.57 1.556 2.372 1.67 3.443.355-.003 1.11.029 1.446.096.91.116 1.771.354 2.565.826-.77-1.88-1.413-3.87-3.448-4.698-.769-.312-1.416-.429-2.235-.547.032-.576.238-1.286.669-1.696.035-.033.155-.112.16-.134-.042-.001-.034-.005-.072.005-1.674.291-2.248 1.977-2.412 3.492-.035.324-.045.643-.063.968m4.252-2.823c.211-.54.728-.617 1.23-.754 1.215-.332 2.51-.147 3.662.325 4.284 1.807 7.545 6.851 9.295 10.993q.499 1.18.893 2.399c.132.415.345 1.063.44 1.48.017.103.051.189.068.286.022.083.106.388.11.456.014.079.014.099.048.168l.016.003c.006-.06-.017-.111-.037-.17-.021-.159-.068-.333-.106-.49-.027-.092-.033-.153-.067-.254a22 22 0 0 0-.422-1.586c-.015-.094-.123-.414-.158-.523a26 26 0 0 0-.484-1.422c-2.578-6.951-7.824-13.21-15.817-12.583l-.21.032c.072.01.129.021.199.01.794.075 1.276.887 1.34 1.63m1.286-.497c.901.266 1.953.714 2.206 1.734.278-.226.55-.434.828-.655.201-.15.6-.462.801-.579a6.3 6.3 0 0 0-2.22-.507c-.463-.018-.914.003-1.367-.01q-.124.008-.248.017"/></svg>
